X: 51
T:Latrigg Side. WI.051
M:C
Q:160
C:"A Hornpipe, by Wm. Irwin"
S:Wm Irwin, Folio MS, c1850. AGG's Transcription
R:Hornpipe
O:England
A:Lake District
Z:vmp.Chris Partington.2005
K:F
cB|A>fef afcA|G>g=fg bgec|Afcf Afcf|gfed cBAG|!
A>fef afcA|G>g=fg bgec|bgaf edc=B|c2c2c2:|!
|:ef|g>c=Bc a>cBc|.b.g.a.f .e.d.c.B|\
A>fef B>g=fg|efde cdec|!
f>c=Bc g>cBc|a>c=Bc bgec|fagb afge|g2f2f2:|]
W:"also a quadrille taken from the above by W.I."
